public/assets/img/material-icons/snooze.svg

<svg height="24" viewBox="0 0 24 24" width="24" xmlns="http://www.w3.org/2000/svg"><path d="m7.88 3.39-1.28-1.53-4.6 3.85 1.29 1.53zm14.12 2.33-4.6-3.86-1.29 1.53 4.6 3.86zm-10-1.72c-4.97 0-9 4.03-9 9s4.02 9 9 9a9 9 0 0 0 0-18zm0 16c-3.87 0-7-3.13-7-7s3.13-7 7-7 7 3.13 7 7-3.13 7-7 7zm-3-9h3.63l-3.63 4.2v1.8h6v-2h-3.63l3.63-4.2v-1.8h-6z"/></svg>

<svg xmlns="http://www.w3.org/2000/svg" width="24" height="24" viewBox="0 0 24 24"><path d="M7.88 3.39 6.6 1.86 2 5.71l1.29 1.53 4.59-3.85zM22 5.72l-4.6-3.86-1.29 1.53 4.6 3.86L22 5.72zM12 4c-4.97 0-9 4.03-9 9s4.02 9 9 9a9 9 0 0 0 0-18zm0 16c-3.87 0-7-3.13-7-7s3.13-7 7-7 7 3.13 7 7-3.13 7-7 7zm-3-9h3.63L9 15.2V17h6v-2h-3.63L15 10.8V9H9v2z"/></svg>
